<?xml version="1.0" encoding="UTF-8"?>
<map version="1.10" tiledversion="1.11.2" orientation="orthogonal" renderorder="right-down" compressionlevel="0" width="60" height="34" tilewidth="32" tileheight="32" infinite="0" nextlayerid="5" nextobjectid="29">
 <editorsettings>
  <chunksize width="32" height="32"/>
 </editorsettings>
 <tileset firstgid="1" source="Dodge The Blocks.tsx"/>
 <layer id="1" name="Background" width="60" height="34">
  <data encoding="csv">
96,97,96,97,96,96,97,96,97,96,97,96,96,97,0,0,0,0,0,0,0,0,0,0,0,0,0,0,0,0,0,0,0,0,0,0,0,0,0,0,0,0,0,0,0,0,96,97,96,97,96,96,97,96,97,96,97,96,96,97,
96,97,96,97,96,96,97,96,97,96,97,96,96,97,0,0,0,0,0,0,0,0,0,0,0,0,0,0,0,0,0,0,0,0,0,0,0,0,0,0,0,0,0,0,0,0,96,97,96,97,96,96,97,96,97,96,97,96,96,97,
96,96,96,96,96,96,97,96,96,96,96,96,96,97,0,0,0,0,0,0,0,0,0,0,0,0,0,0,0,0,0,0,0,0,0,0,0,0,0,0,0,0,0,0,0,0,96,96,96,96,96,96,97,96,96,96,96,96,96,97,
96,96,96,96,97,96,97,96,96,96,96,97,96,97,0,0,0,0,0,0,0,0,0,0,0,0,0,0,0,0,0,0,0,0,0,0,0,0,0,0,0,0,0,0,0,0,96,96,96,96,97,96,97,96,96,96,96,97,96,97,
96,96,96,96,97,96,97,96,96,96,96,97,96,97,0,0,0,0,0,0,0,0,0,0,0,0,0,0,0,0,0,0,0,0,0,0,0,0,0,0,0,0,0,0,0,0,96,96,96,96,97,96,97,96,96,96,96,97,96,97,
96,96,96,97,96,97,97,96,96,96,97,96,97,97,0,0,0,0,0,0,0,0,0,0,0,0,0,0,0,0,0,0,0,0,0,0,0,0,0,0,0,0,0,0,0,0,96,96,96,97,96,97,97,96,96,96,97,96,97,97,
96,96,96,97,96,96,97,96,96,96,97,96,96,97,0,0,0,0,0,0,0,0,0,0,0,0,0,0,0,0,0,0,0,0,0,0,0,0,0,0,0,0,0,0,0,0,96,96,96,97,96,96,97,96,96,96,97,96,96,97,
96,96,96,97,96,96,97,96,96,96,97,96,96,97,0,0,0,0,0,0,0,0,0,0,0,0,0,0,0,0,0,0,0,0,0,0,0,0,0,0,0,0,0,0,0,0,96,96,96,97,96,96,97,96,96,96,97,96,96,97,
96,96,96,97,96,96,97,96,96,96,97,96,96,97,0,0,0,0,0,0,0,0,0,0,0,0,0,0,0,0,0,0,0,0,0,0,0,0,0,0,0,0,0,0,0,0,96,96,96,97,96,96,97,96,96,96,97,96,96,97,
96,96,96,97,96,96,97,96,96,96,97,96,96,97,0,0,0,0,0,0,0,0,0,0,0,0,0,0,0,0,0,0,0,0,0,0,0,0,0,0,0,0,0,0,0,0,96,96,96,97,96,96,97,96,96,96,97,96,96,97,
96,96,96,96,97,96,97,96,96,96,96,97,96,97,0,0,0,0,0,0,0,0,0,0,0,0,0,0,0,0,0,0,0,0,0,0,0,0,0,0,0,0,0,0,0,0,96,96,96,96,97,96,97,96,96,96,96,97,96,97,
96,96,97,96,97,96,97,96,96,97,96,97,96,97,0,0,0,0,0,0,0,0,0,0,0,0,0,0,0,0,0,0,0,0,0,0,0,0,0,0,0,0,0,0,0,0,96,96,97,96,97,96,97,96,96,97,96,97,96,97,
96,96,97,96,97,96,97,96,96,97,96,97,96,97,0,0,0,0,0,0,0,0,0,0,0,0,0,0,0,0,0,0,0,0,0,0,0,0,0,0,0,0,0,0,0,0,96,96,97,96,97,96,97,96,96,97,96,97,96,97,
96,96,97,96,97,96,97,96,96,97,96,97,96,97,0,0,0,0,0,0,0,0,0,0,0,0,0,0,0,0,0,0,0,0,0,0,0,0,0,0,0,0,0,0,0,0,96,96,97,96,97,96,97,96,96,97,96,97,96,97,
96,96,97,96,97,96,97,96,96,97,96,97,96,97,0,0,0,0,0,0,0,0,0,0,0,0,0,0,0,0,0,0,0,0,0,0,0,0,0,0,0,0,0,0,0,0,96,96,97,96,97,96,97,96,96,97,96,97,96,97,
96,96,97,96,97,96,97,96,96,97,96,97,96,97,0,0,0,0,0,0,0,0,0,0,0,0,0,0,0,0,0,0,0,0,0,0,0,0,0,0,0,0,0,0,0,0,96,96,97,96,97,96,97,96,96,97,96,97,96,97,
96,96,97,96,97,96,97,96,96,97,96,97,96,97,0,0,0,0,0,0,0,0,0,0,0,0,0,0,0,0,0,0,0,0,0,0,0,0,0,0,0,0,0,0,0,0,96,96,97,96,97,96,97,96,96,97,96,97,96,97,
96,96,97,96,97,96,97,96,96,97,96,97,96,97,0,0,0,0,0,0,0,0,0,0,0,0,0,0,0,0,0,0,0,0,0,0,0,0,0,0,0,0,0,0,0,0,96,96,97,96,97,96,97,96,96,97,96,97,96,97,
96,96,97,96,97,96,97,96,96,97,96,97,96,97,0,0,0,0,0,0,0,0,0,0,0,0,0,0,0,0,0,0,0,0,0,0,0,0,0,0,0,0,0,0,0,0,96,96,97,96,97,96,97,96,96,97,96,97,96,97,
96,97,96,96,97,96,97,96,97,96,96,97,96,97,0,0,0,0,0,0,0,0,0,0,0,0,0,0,0,0,0,0,0,0,0,0,0,0,0,0,0,0,0,0,0,0,96,97,96,96,97,96,97,96,97,96,96,97,96,97,
96,97,96,96,97,96,97,96,97,96,96,97,96,97,0,0,0,0,0,0,0,0,0,0,0,0,0,0,0,0,0,0,0,0,0,0,0,0,0,0,0,0,0,0,0,0,96,97,96,96,97,96,97,96,97,96,96,97,96,97,
96,97,96,96,97,96,97,96,97,96,96,97,96,97,0,0,0,0,0,0,0,0,0,0,0,0,0,0,0,0,0,0,0,0,0,0,0,0,0,0,0,0,0,0,0,0,96,97,96,96,97,96,97,96,97,96,96,97,96,97,
96,97,96,96,96,96,97,96,97,96,96,96,96,97,0,0,0,0,0,0,0,0,0,0,0,0,0,0,0,0,0,0,0,0,0,0,0,0,0,0,0,0,0,0,0,0,96,97,96,96,96,96,97,96,97,96,96,96,96,97,
96,97,96,96,96,96,97,96,97,96,96,96,96,97,0,0,0,0,0,0,0,0,0,0,0,0,0,0,0,0,0,0,0,0,0,0,0,0,0,0,0,0,0,0,0,0,96,97,96,96,96,96,97,96,97,96,96,96,96,97,
96,96,96,96,96,96,97,96,96,96,96,96,96,97,0,0,0,0,0,0,0,0,0,0,0,0,0,0,0,0,0,0,0,0,0,0,0,0,0,0,0,0,0,0,0,0,96,96,96,96,96,96,97,96,96,96,96,96,96,97,
96,96,96,96,96,96,97,96,96,96,96,96,96,97,0,0,0,0,0,0,0,0,0,0,0,0,0,0,0,0,0,0,0,0,0,0,0,0,0,0,0,0,0,0,0,0,96,96,96,96,96,96,97,96,96,96,96,96,96,97,
96,96,96,96,96,96,97,96,96,96,96,96,96,97,96,96,96,96,96,96,97,96,96,96,96,96,96,97,96,96,96,96,96,96,97,96,96,96,96,96,96,96,96,97,96,96,96,96,96,96,97,96,97,96,96,96,96,96,96,97,
96,96,96,96,96,96,97,96,96,96,96,96,96,97,96,96,96,96,96,96,97,96,96,96,96,96,96,97,96,96,96,96,96,96,97,96,96,96,96,96,96,96,96,97,96,96,96,96,96,96,97,96,97,96,96,96,96,96,96,97,
96,96,97,96,96,96,97,96,96,97,96,96,96,97,96,96,97,96,96,96,97,96,96,97,96,96,96,97,96,96,97,96,96,96,97,96,96,96,96,97,96,96,96,97,96,96,97,96,96,96,97,96,97,96,96,97,96,96,96,97,
96,96,97,96,96,96,97,96,96,97,96,96,96,97,96,96,97,96,96,96,97,96,96,97,96,96,96,97,96,96,97,96,96,96,97,96,96,96,96,97,96,96,96,97,96,96,97,96,96,96,97,96,97,96,96,97,96,96,96,97,
96,96,97,96,96,96,97,96,96,97,96,96,96,97,96,96,97,96,96,96,97,96,96,97,96,96,96,97,96,96,97,96,96,96,97,96,96,96,96,97,96,96,96,97,96,96,97,96,96,96,97,96,97,96,96,97,96,96,96,97,
96,96,97,96,96,96,97,96,96,97,96,96,96,97,96,96,97,96,96,96,97,96,96,97,96,96,96,97,96,96,97,96,96,96,97,96,96,96,96,97,96,96,96,97,96,96,97,96,96,96,97,96,97,96,96,97,96,96,96,97,
96,97,97,96,96,97,97,96,97,97,96,96,97,97,96,97,97,96,96,97,97,96,97,97,96,96,97,97,96,97,97,96,96,97,97,96,97,96,97,97,96,96,97,97,96,97,97,96,96,97,97,97,97,96,97,97,96,96,97,97,
97,97,96,96,96,97,97,97,97,96,96,96,97,97,97,97,96,96,96,97,97,97,97,96,96,96,97,97,97,97,96,96,96,97,97,97,97,97,97,96,96,96,97,97,97,97,96,96,96,97,97,97,97,97,97,96,96,96,97,97
</data>
 </layer>
 <objectgroup id="2" name="Spawnpoint">
  <object id="3" name="Player" type="Player" x="912" y="694" width="80" height="124"/>
 </objectgroup>
 <objectgroup id="4" name="Enemies">
  <object id="15" name="Spawner" type="Spawner" x="448" y="-32" width="64" height="64"/>
  <object id="16" name="Spawner" type="Spawner" x="640" y="-32" width="64" height="64"/>
  <object id="17" name="Spawner" type="Spawner" x="736" y="-32" width="64" height="64"/>
  <object id="18" name="Spawner" type="Spawner" x="832" y="-32" width="64" height="64"/>
  <object id="19" name="Spawner" type="Spawner" x="1024" y="-32" width="64" height="64"/>
  <object id="20" name="Spawner" type="Spawner" x="1120" y="-32" width="64" height="64"/>
  <object id="22" name="Spawner" type="Spawner" x="1216" y="-32" width="64" height="64"/>
  <object id="23" name="Spawner" type="Spawner" x="1408" y="-32" width="64" height="64"/>
  <object id="25" name="Spawner" type="Spawner" x="1312" y="-32" width="64" height="64"/>
  <object id="26" name="Spawner" type="Spawner" x="928" y="-32" width="64" height="64"/>
  <object id="27" name="Spawner" type="Spawner" x="544" y="-32" width="64" height="64"/>
  <object id="28" name="Ground" type="Ground" x="448" y="800" width="1024" height="64"/>
 </objectgroup>
 <objectgroup id="3" name="Collisions">
  <object id="12" x="256" y="0" width="200" height="896"/>
  <object id="13" x="448" y="832" width="1024" height="64"/>
  <object id="14" x="1472" y="0" width="200" height="896"/>
 </objectgroup>
</map>
